assets/Tanabata tree/Flat/tanabata_tree_flat.svg

<svg width="32" height="32" viewBox="0 0 32 32" fill="none" xmlns="http://www.w3.org/2000/svg">
<path d="M29.99 6.54V2C27.7892 2 26 4.00001 26 6.46001V9.98999H21.838L22.63 5.48381C22.67 5.2271 22.48 5 22.22 5H15.66C15.46 5 15.28 5.14811 15.25 5.34558L13.1137 17.5L6 17.5V13.9565C6 11.4819 4.20628 9.47 2 9.47V14.037C2 16.3243 3.51249 18.2024 5.48098 18.4863C5.51469 18.4944 5.54974 18.499 5.58572 18.4999C5.72187 18.5155 5.86008 18.5234 6 18.5234V18.5H12.938L11 29.5262C10.96 29.7829 11.15 30.01 11.41 30.01H17.97C18.17 30.01 18.35 29.8619 18.38 29.6644L21.6622 10.99H26V11C28.2008 11 29.99 9 29.99 6.54Z" fill="#44911B"/>
<path d="M26.0017 9.89999C26.0017 9.62385 25.7779 9.39999 25.5017 9.39999C25.2256 9.39999 25.0017 9.62385 25.0017 9.89999V18.37C25.0017 18.6461 25.2256 18.87 25.5017 18.87C25.7779 18.87 26.0017 18.6461 26.0017 18.37V9.89999Z" fill="#635994"/>
<path d="M6.99609 17.3C6.99609 17.0239 6.77224 16.8 6.49609 16.8C6.21995 16.8 5.99609 17.0239 5.99609 17.3V25.77C5.99609 26.0461 6.21995 26.27 6.49609 26.27C6.77224 26.27 6.99609 26.0461 6.99609 25.77V17.3Z" fill="#635994"/>
<path d="M27.6571 25.8878L25.9116 24.6124C25.7043 24.4675 25.4098 24.4675 25.2134 24.6124L23.468 25.8878C23.108 26.1487 22.5625 25.9265 22.5625 25.511V18.96L25.5625 18.129L28.5625 18.96V25.511C28.5625 25.9168 28.0171 26.1487 27.6571 25.8878Z" fill="#F70A8D"/>
<path d="M13.512 12.02H21.3998C22.2431 12.02 22.9219 12.68 22.9219 13.5C22.9219 14.32 22.2431 14.98 21.3998 14.98H13.512C12.6687 14.98 11.99 14.32 11.99 13.5C11.99 12.68 12.6687 12.02 13.512 12.02Z" fill="#86D72F"/>
<path d="M11.84 23.52H19.51C20.32 23.52 20.99 24.18 20.99 25C20.99 25.82 20.33 26.48 19.51 26.48H11.84C11.02 26.48 10.36 25.82 10.36 25C10.36 24.18 11.02 23.52 11.84 23.52Z" fill="#86D72F"/>
<path d="M8.57894 29.88L6.83347 28.56C6.6262 28.41 6.33164 28.41 6.13528 28.56L4.38981 29.88C4.02981 30.15 3.48438 29.92 3.48438 29.49V22.71H9.48438V29.49C9.48438 29.92 8.93894 30.15 8.57894 29.88Z" fill="#00A6ED"/>
<path d="M22.5676 18.96H28.5574C29.1112 18.96 29.5625 18.52 29.5625 17.98C29.5625 17.44 29.1112 17 28.5574 17H22.5676C22.0138 17 21.5625 17.44 21.5625 17.98C21.5625 18.52 22.0138 18.96 22.5676 18.96Z" fill="#F9C23C"/>
<path d="M3.48881 23H9.4746C10.0281 23 10.479 22.551 10.479 22C10.479 21.449 10.0281 21 9.4746 21H3.48881C2.93534 21 2.48438 21.449 2.48438 22C2.48438 22.551 2.93534 23 3.48881 23Z" fill="#F9C23C"/>
</svg>

<svg xmlns="http://www.w3.org/2000/svg" width="32" height="32" fill="none"><path fill="#44911B" d="M29.99 6.54V2C27.79 2 26 4 26 6.46v3.53h-4.162l.792-4.506A.414.414 0 0 0 22.22 5h-6.56c-.2 0-.38.148-.41.346L13.114 17.5H6v-3.543C6 11.482 4.206 9.47 2 9.47v4.567c0 2.287 1.512 4.165 3.481 4.45a3.638 3.638 0 0 0 .519.037V18.5h6.938L11 29.526c-.04.257.15.484.41.484h6.56c.2 0 .38-.148.41-.346l3.282-18.674H26V11c2.2 0 3.99-2 3.99-4.46Z"/><path fill="#635994" d="M26.002 9.9a.5.5 0 1 0-1 0v8.47a.5.5 0 0 0 1 0V9.9ZM6.996 17.3a.5.5 0 0 0-1 0v8.47a.5.5 0 0 0 1 0V17.3Z"/><path fill="#F70A8D" d="m27.657 25.888-1.745-1.276a.615.615 0 0 0-.699 0l-1.745 1.276c-.36.26-.905.038-.905-.377V18.96l3-.831 3 .831v6.551c0 .406-.546.638-.906.377Z"/><path fill="#86D72F" d="M13.512 12.02H21.4c.843 0 1.522.66 1.522 1.48s-.679 1.48-1.522 1.48h-7.888c-.843 0-1.522-.66-1.522-1.48s.679-1.48 1.522-1.48ZM11.84 23.52h7.67c.81 0 1.48.66 1.48 1.48s-.66 1.48-1.48 1.48h-7.67c-.82 0-1.48-.66-1.48-1.48s.66-1.48 1.48-1.48Z"/><path fill="#00A6ED" d="m8.579 29.88-1.746-1.32a.598.598 0 0 0-.698 0L4.39 29.88c-.36.27-.906.04-.906-.39v-6.78h6v6.78c0 .43-.545.66-.905.39Z"/><path fill="#F9C23C" d="M22.568 18.96h5.99a.994.994 0 0 0 1.005-.98c0-.54-.452-.98-1.006-.98h-5.99a.994.994 0 0 0-1.005.98c0 .54.452.98 1.006.98ZM3.489 23h5.986c.553 0 1.004-.449 1.004-1 0-.551-.45-1-1.004-1H3.489c-.554 0-1.005.449-1.005 1 0 .551.451 1 1.005 1Z"/></svg>
